!!!COM:	Obrecht, Jacob
!!!CDT:	1458-1505/07/
!!!OTL:	Mille quingentis / Requiem
!!!AGN:	Motet
!!!SCT:	Obr2018
!!!SCA:	Obr2018
!!!voices:	4
**kern	**kern	**kern	**kern
*staff4	*staff3	*staff2	*staff1
*Ivox	*Ivox	*Ivox	*Ivox
*I"Bassus	*I"Tenor	*I"Altus	*I"Discantus
*I'B	*I'T	*I'A	*I'D
*>[A,B]	*>[A,B]	*>[A,B]	*>[A,B]
*>A	*>A	*>A	*>A
*clefF4	*clefGv2	*clefGv2	*clefG2
*k[]	*k[]	*k[]	*k[]
*M3/1	*M3/1	*M3/1	*M3/1
*met(O)	*met(O)	*met(O)	*met(O)
!!section: Prima pars: Mille quintentis/Requiem
!!!OMD: Prima pars: Mille quintentis/Requiem
=1-	=1-	=1-	=1-
0.E	0.r	1.e	1e
.	.	.	2.e/
.	.	4d\	.
.	.	4c\	4f/
.	.	1B	1g
=2	=2	=2	=2
0.F	0.r	1A	1c
.	.	1r	2d/
.	.	.	2c/
.	.	1A	1d
=3	=3	=3	=3
0.E	0.r	2B\	2.e/
.	.	1c	.
.	.	.	4f/
.	.	.	2g/
.	.	4B\	1a
.	.	4A/	.
.	.	1B	.
.	.	.	2g#i/
=4	=4	=4	=4
0.AA	0.E	[0.A	1a
.	.	.	2r
.	.	.	2.cc\
.	.	.	4b\
.	.	.	4a/
.	.	.	4g/
=5	=5	=5	=5
0.D	0.F	0A]	2f/
.	.	.	2.a/
.	.	.	4g/
.	.	.	4f/
.	.	.	4e/
.	.	1B-	1d
=6	=6	=6	=6
0AA	0.E	2A/	2c/
.	.	2.c\	2.e/
.	.	4B\	4d/
.	.	1A	2c/
1r	.	.	1B
.	.	2G/	.
=7	=7	=7	=7
1AA	0.E	2A/	2A/
.	.	2.e\	2.cc\
2.C/	.	.	.
.	.	4d\	4b\
.	.	2c\	1a
4D\	.	.	.
2E\	.	1B	.
2G\	.	.	2g/
=8	=8	=8	=8
2F\	0.r	2A/	2a/
2.A\	.	2.c\	2.f/
4G\	.	4B\	4e/
2E\	.	2G/	2c/
1F	.	1A	1d
=9	=9	=9	=9
1E	0.r	1B	[0.e
2r	.	2c\	.
2E\	.	2B\	.
2E\	.	2.c\	.
2AA/	.	.	.
.	.	8B/L	.
.	.	8A/J	.
=10	=10	=10	=10
1.E	0.r	2G/	1e]
.	.	2.c\	.
.	.	.	1r
.	.	4B\	.
2D\	.	1B	.
2.C/	.	.	1r
.	.	2A/	.
8BB/L	.	.	.
8AA/J	.	.	.
=11	=11	=11	=11
1GG	1E	1B	0.r
0AA	0F	1r	.
.	.	1r	.
=12	=12	=12	=12
0GG	0.G	0B	0d
1BB	.	1d	1g
=13	=13	=13	=13
1C	1G	1c	1e
1.D	0F	0A	0d
4E\	.	.	.
4F\	.	.	.
=14	=14	=14	=14
1.G	0.E	1.B	1.e
2C/	.	2G/	2e/
1C	.	1c	1e
=15	=15	=15	=15
0.FF	0.F	1A	0c
.	.	2r	.
.	.	2.c\	.
.	.	.	2r
.	.	4B\	.
.	.	4A/	[2cc\
.	.	4G/	.
=16	=16	=16	=16
2r	0.F	2.A/	2cc\]
2.F\	.	.	2.a/
.	.	4B\	.
.	.	2c\	.
4E\	.	.	4g/
4D\	.	2.d\	4f/
4C/	.	.	4e/
1D	.	.	2.f/
.	.	4A/	.
.	.	2d\	.
.	.	.	8e/L
.	.	.	8d/J
=17	=17	=17	=17
0AA	0.E	1.e	2c/
.	.	.	2.cc\
.	.	.	4b\
.	.	2c\	1a
1r	.	1B	.
.	.	.	2g#i/
=18	=18	=18	=18
2r	0.r	2A/	1a
2FF/	.	2c\	.
2GG/	.	2B\	1r
2AA/	.	1A	.
1BB	.	.	1d
.	.	2G/	.
=19	=19	=19	=19
2AA/	0.r	1A	2f/
2C/	.	.	2e/
2D\	.	2r	2f/
2E\	.	2G/	2g/
2F\	.	2A/	2c/
2E\	.	2G/	[2cc\
=20	=20	=20	=20
2F\	0.r	2A/	4cc\]
.	.	.	4a/
2G\	.	2B\	2.dd\
1A	.	1c	.
.	.	.	4cc\
.	.	.	2.cc\
1G	.	1d	.
.	.	.	8b/L
.	.	.	8a/J
.	.	.	2b\
=21	=21	=21	=21
0.C	0.G	[0.c	0.e
=22	=22	=22	=22
2.C/	0.G	0.c]	2r
.	.	.	2.g/
4D\	.	.	.
2E\	.	.	.
.	.	.	4f/
2F\	.	.	2.f/
1C	.	.	.
.	.	.	8e/L
.	.	.	8d/J
.	.	.	2e/
=23	=23	=23	=23
1r	0.F	0c	0A
1r	.	.	.
1F	.	1A	2r
.	.	.	[2cc\
=24	=24	=24	=24
1G	0.r	1B	4cc\]
.	.	.	4b\
.	.	.	2.b\
1A	.	1c	.
.	.	.	8a/L
.	.	.	8g/J
.	.	.	2a/
[1G	.	[1B	1d
=25	=25	=25	=25
1G]	0.r	1B]	2r
.	.	.	2.dd\
1A	.	1c	.
.	.	.	4cc\
.	.	.	2.cc\
1G	.	1d	.
.	.	.	8b/L
.	.	.	8a/J
.	.	.	2b\
=26	=26	=26	=26
2A\	0.r	1.c	2e/
1F	.	.	2.a/
.	.	.	4g/
2G\	.	2B\	1g
1D	.	1A	.
.	.	.	2f#i/
=27	=27	=27	=27
2.GG/	0.G	4G/	1g
.	.	4A/	.
.	.	4B\	.
4AA/	.	4c\	.
2BB/	.	2d\	1r
2C/	.	1e	.
2GG/	.	.	1g
[2G\	.	4d\	.
.	.	4c\	.
=28	=28	=28	=28
4G\]	0G	1B	1g
4F\	.	.	.
4E\	.	.	.
4D\	.	.	.
1C	.	1c	1e
[1BB-	[1B-	[1F	[1d
=29	=29	=29	=29
1BB-]	1B-]	1F]	1d]
0C	0G	0c	0e
=30	=30	=30	=30
1.D	0F	0A	0f
2C/	.	.	.
1BB-	1G	1D	1r
=31	=31	=31	=31
2AA/	1.A	2E/	0.r
1F	.	2D/	.
.	.	2F/	.
1E	2G/	2G/	.
.	1F	1A	.
2D\	.	.	.
=32	=32	=32	=32
1.G	0.r	1.B	0d
2F\	.	2A/	.
2G\	.	2B\	2d/
4F\	.	2c\	2e/
4E\	.	.	.
=33	=33	=33	=33
1.D	0.r	1d	1.f
.	.	1r	.
2C/	.	.	2e/
2D\	.	1d	2f/
4C/	.	.	4e/
4BB/	.	.	4d/
=34	=34	=34	=34
1AA	0.r	1e	2c/
.	.	.	2cc\
2BB/	.	2d\	2b\
2C/	.	2c\	1a
2D\	.	1B	.
2E\	.	.	2g#i/
=35	=35	=35	=35
1AA	0.E	1A	1a
1r	.	1B	1g
1AA	.	[1c	2a/
.	.	.	4g/
.	.	.	4f/
=36	=36	=36	=36
1C	1E	1c]	1e
1D	1F	1A	1d
1GG	[1G	1B	2e/
.	.	.	[2g/
=37	=37	=37	=37
1C	1G]	1c	2g/]
.	.	.	1e
0D	0F	0A	.
.	.	.	4d/
.	.	.	4c/
.	.	.	1d
=38	=38	=38	=38
2GG/	0.E	2B\	1e
2.AA/	.	2.c\	.
.	.	.	2r
4GG/	.	4B\	.
2.C/	.	2.e\	1g
4BB/	.	4d\	.
2GG/	.	2B\	2e/
=39	=39	=39	=39
1D	0.F	2A/	2d/
.	.	2.f\	2.a/
2r	.	.	.
.	.	4e\	4g/
2D\	.	2.d\	4f/
.	.	.	4e/
2.D\	.	.	2f/
.	.	4c\	.
.	.	[2A/	4e/
8C/L	.	.	4d/
8BB/J	.	.	.
=40	=40	=40	=40
2AA/	0.F	1A]	2c/
2D\	.	.	2.f/
2BB/	.	2d\	.
.	.	.	4e/
2C/	.	2c\	1e
1D	.	2A/	.
.	.	2B\	2d/
=41	=41	=41	=41
1AA	0.E	1.c	0.e
1r	.	.	.
.	.	2B\	.
2.AA/	.	2.c\	.
4BB/	.	8B/L	.
.	.	8A/J	.
=42	=42	=42	=42
2C/	0.r	2G/	0.r
2.F\	.	2.A/	.
4E\	.	4E/	.
1E	.	2G/	.
.	.	1F	.
2D\	.	.	.
=43	=43	=43	=43
0.E	0.r	1E	0g
.	.	2r	.
.	.	2.e\	.
.	.	.	1g
.	.	4d\	.
.	.	2c\	.
=44	=44	=44	=44
0.r	0.r	2B\	1g
.	.	2c\	.
.	.	2B\	1g
.	.	1e	.
.	.	.	1f
.	.	2d\	.
=45	=45	=45	=45
1.C	0G	0e	1e
.	.	.	1r
2.E\	.	.	.
.	1G	1r	1r
4D\	.	.	.
2C/	.	.	.
=46	=46	=46	=46
2BB/	1G	0.r	0.r
2C/	.	.	.
2BB/	1G	.	.
1E	.	.	.
.	1F	.	.
2D\	.	.	.
=47	=47	=47	=47
1E	0.E	1B	1.g
1r	.	2c\	.
.	.	2B\	2e/
1r	.	2e\	2g/
.	.	4d\	4f/
.	.	4c\	4e/
=48	=48	=48	=48
1.G	0.r	1.B	1d
.	.	.	2r
2E\	.	2G/	2g/
2G\	.	2B\	2e/
4F\	.	2c\	2g/
4E\	.	.	.
=49	=49	=49	=49
1D	0.r	2d\	2f/
.	.	1f	1a
2r	.	.	.
2G\	.	2.e\	2.g/
2E\	.	.	.
.	.	8d\L	4f/
.	.	8c\J	.
2G\	.	2B\	4e/
.	.	.	4d/
=50	=50	=50	=50
2F\	0.r	2A/	2c/
2.A\	.	2.c\	2.f/
4G\	.	4B\	4e/
2E\	.	1B	1e
1F	.	.	.
.	.	2A/	2d/
=51	=51	=51	=51
1E	0G	2.B\	0e
.	.	8A/L	.
.	.	8B/J	.
2C/	.	2c\	.
2.E\	.	2B\	.
.	[1G	2c\	1r
4F\	.	.	.
2G\	.	2B\	.
=52	=52	=52	=52
1C	1G]	1c	1e
2BB/	0G	2r	2d/
2.C/	.	2c\	2.e/
.	.	1e	.
4D\	.	.	4f/
4E\	.	.	[2g/
4F\	.	.	.
=53	=53	=53	=53
0G	0.B-	2d\	2g/]
.	.	2.g\	1d
.	.	4f\	.
.	.	2e\	2.g/
1G	.	1d	.
.	.	.	4f/
.	.	.	2d/
=54	=54	=54	=54
1.C	0.G	0c	0e
2D\	.	.	.
1E	.	1B	1e
=55	=55	=55	=55
2AA/	0F	0A	2r
2.D\	.	.	2.f/
4C/	.	.	4g/
2AA/	.	.	2a/
1BB	1G	1r	4g/
.	.	.	4f/
.	.	.	4e/
.	.	.	4d/
=56	=56	=56	=56
1AA	0A	1e	1.c
2.AA/	.	2c\	.
.	.	1f	2c/
4BB/	.	.	.
1C	1G	.	1c
.	.	2e\	.
=57	=57	=57	=57
1.D	0.F	2d\	1A
.	.	2.f\	.
.	.	.	2r
.	.	4e\	.
2AA/	.	2c\	2.a/
1D	.	1d	.
.	.	.	4g/
.	.	.	2f/
=58	=58	=58	=58
1AA	0.r	2c\	2e/
.	.	2.f\	2.a/
1r	.	.	.
.	.	4e\	4g/
.	.	1e	2e/
1r	.	.	1f
.	.	2d\	.
=59	=59	=59	=59
0.r	0.r	2e\	2e/
.	.	2.A/	2.f/
.	.	4G/	4e/
.	.	2E/	1e
.	.	1F	.
.	.	.	2d/
=60	=60	=60	=60
0.r	0.r	2E/	2e/
.	.	2F/	2d/
.	.	2E/	2e/
.	.	1e	2g/
.	.	.	2.f/
.	.	2d\	.
.	.	.	8e/L
.	.	.	8d/J
=61	=61	=61	=61
0AA	1E	1e	0c
.	0F	1r	.
1AA	.	1r	1r
=62	=62	=62	=62
1GG	0.G	0B	0d
1r	.	.	.
1GG	.	1B	2d/
.	.	.	2e/
=63	=63	=63	=63
0D	0.F	2A/	2f/
.	.	2.f\	2.a/
.	.	4e\	4g/
.	.	4d\	4f/
.	.	4c\	4e/
2BB/	.	1d	2f/
2D\	.	.	4e/
.	.	.	4d/
=64	=64	=64	=64
1AA	0.E	0e	1c
2.AA/	.	.	2r
.	.	.	2.cc\
4BB/	.	.	.
1C	.	1e	.
.	.	.	4b\
.	.	.	2g/
=65	=65	=65	=65
1FF	0.F	1c	2.a/
.	.	.	4b\
2r	.	2.A/	2cc\
2.F\	.	.	2.a/
.	.	4B\	.
.	.	2c\	.
4E\	.	.	4g/
[2D\	.	[2d\	[2f/
=66	=66	=66	=66
4D\]	0.F	4d\]	4f/]
4C/	.	4e\	4e/
2AA/	.	2.f\	2c/
2BB/	.	.	2d/
.	.	8e\L	.
.	.	8d\J	.
2C/	.	2c\	1e
1D	.	2A/	.
.	.	2B\	2d/
=67	=67	=67	=67
1.AA	[0.El	1.c	[0.el
2GG/	.	2B\	.
1AA	.	1c	.
=68	=68	=68	=68
0.EEl	0.E]	0.Bl	0.e]
!!LO:LB:i:g=z
=69||	=69||	=69||	=69||
*>B	*>B	*>B	*>B
*clefF4	*clefGv2	*clefGv2	*clefG2
*k[]	*k[]	*k[]	*k[]
*M2/1	*M2/1	*M2/1	*M2/1
*met(C|)	*met(C|)	*met(C|)	*met(C|)
!!section: Secunda pars: Cecilie ad festum
!!!OMD: Secunda pars: Cecilie ad festum
!	!	!	!LO:TX:Z=12:t=All&colon; Men2
0E	0r	[0e	1.g
.	.	.	2a/
=70	=70	=70	=70
1E	0r	0e]	1b
1E	.	.	1b
=71	=71	=71	=71
0AA	0r	1e	0cc
.	.	1f	.
=72	=72	=72	=72
0r	0E	1g	1b
.	.	1e	1b
=73	=73	=73	=73
0r	0F	1c	2a/
.	.	.	1cc
.	.	1d	.
.	.	.	4b\
.	.	.	4a/
=74	=74	=74	=74
0r	0E	1e	2.g/
.	.	.	8a/L
.	.	.	8b/J
.	.	2c\	2cc\
.	.	[2e\	[2b\
=75	=75	=75	=75
0r	0E	4e\]	4b\]
.	.	4d\	4a/
.	.	2c\	1a
.	.	1B	.
.	.	.	2g#i/
=76	=76	=76	=76
1AA	0r	2A/	1a
.	.	2c\	.
1BB	.	2B\	1d
.	.	[2G/	.
=77	=77	=77	=77
1C	0r	2G/]	1e
.	.	2A/	.
2BB/	.	4B\	2d/
.	.	4A/	.
[2C/	.	4G/	[2e/
.	.	4F/	.
=78	=78	=78	=78
2C/]	0r	2E/	2e/]
2AA/	.	1A	2c/
1BB	.	.	1d
.	.	2G#i/	.
=79	=79	=79	=79
0AA	1E	0A	1c
.	1F	.	2r
.	.	.	2cc\
=80	=80	=80	=80
1.E	0G	0r	2b\
.	.	.	1g
4D\	.	.	4f/
4C/	.	.	4e/
=81	=81	=81	=81
2BB/	1G	1r	2d/
2C/	.	.	1e
1D	1F	1A	.
.	.	.	2d/
=82	=82	=82	=82
2r	0E	2B\	4e/
.	.	.	4f/
1E	.	2c\	4g/
.	.	.	4a/
.	.	2B\	2b\
2C/	.	2e\	[2cc\
=83	=83	=83	=83
2AA/	0F	2c\	2cc\]
2D\	.	2.f\	2a/
2r	.	.	4a/
.	.	4e\	4g/
[2D\	.	4d\	4f/
.	.	4c\	4e/
=84	=84	=84	=84
2D\]	0F	2d\	2d/
2AA/	.	4c\	1e
.	.	4B\	.
1D	.	2A/	.
.	.	2B\	2d/
=85	=85	=85	=85
0AA	0E	1c	0e
.	.	1A	.
=86	=86	=86	=86
[0E	0r	2B\	0r
.	.	1c	.
.	.	4B\	.
.	.	4A/	.
=87	=87	=87	=87
1.E]	0r	2G/	0r
.	.	2.c\	.
.	.	4d\	.
2C/	.	2e\	.
=88	=88	=88	=88
1F	0r	2d\	0r
.	.	1c	.
1D	.	.	.
.	.	2B\	.
=89	=89	=89	=89
0C	0G	0c	0e
=90	=90	=90	=90
1C	0G	1c	1e
1C	.	1c	1e
=91	=91	=91	=91
1D	0F	1.A	0f
1D	.	.	.
.	.	2B\	.
=92	=92	=92	=92
0AA	0r	1.c	1.e
.	.	4B\	[2c/
.	.	4A/	.
=93	=93	=93	=93
1.E	0r	1G	4c/]
.	.	.	4d/
.	.	.	2e/
.	.	2r	2g/
2D\	.	2A/	[2f/
=94	=94	=94	=94
2E\	0r	2G/	2f/]
2G\	.	1B	1e
1F	.	.	.
.	.	2A/	2d/
=95	=95	=95	=95
1E	0G	1B	2e/
.	.	.	2.g/
1C	.	1c	.
.	.	.	4f/
.	.	.	2e/
=96	=96	=96	=96
[0GG	3%4GV	1B	1d
.	.	[1G	[1dd
.	[3%2B-Z	.	.
=97	=97	=97	=97
0GG]	3%2B-]V	1G]	2dd\]
.	.	.	2cc\
.	3%4GZ	.	.
.	.	[1d	1b
=98	=98	=98	=98
1.D	0F	2d\]	1a
.	.	4c\	.
.	.	4B\	.
.	.	1A	4a/
.	.	.	4g/
2C/	.	.	4f/
.	.	.	4e/
=99	=99	=99	=99
1BB	1G	1B	1d
1AA	[1A	2r	2c/
.	.	[2c\	[2f/
=100	=100	=100	=100
0r	2A/]	2c\]	2f/]
.	2G/	2B\	1e
.	1F	1A	.
.	.	.	2d/
=101	=101	=101	=101
1C	0r	4G/	4e/
.	.	4A/	4f/
.	.	4B\	4g/
.	.	4c\	4a/
2BB/	.	2d\	2b\
2AA/	.	[2e\	[2cc\
=102	=102	=102	=102
2.C/	0r	4e\]	4cc\]
.	.	4d\	4b\
.	.	2c\	1a
4D\	.	.	.
1E	.	1B	.
.	.	.	2g#i/
=103	=103	=103	=103
1AA	0r	1A	2a/
.	.	.	2cc\
1r	.	1r	2b\
.	.	.	[2cc\
=104	=104	=104	=104
0r	0E	0r	2cc\]
.	.	.	4b\
.	.	.	4a/
.	.	.	1g
=105	=105	=105	=105
1AA	3%2EV	0r	1c
.	3%2F	.	.
1BB	.	.	1d
.	[3%2GZ	.	.
=106	=106	=106	=106
1C	3%2G]V	0r	1e
.	3%4FZ	.	.
1D	.	.	1f
=107	=107	=107	=107
1E	0E	0r	1g
1r	.	.	4g/
.	.	.	4f/
.	.	.	4e/
.	.	.	4d/
=108	=108	=108	=108
0r	0F	0r	2c/
.	.	.	2d/
.	.	.	2c/
.	.	.	[2f/
=109	=109	=109	=109
0r	0F	0r	4f/]
.	.	.	4e/
.	.	.	4d/
.	.	.	4c/
.	.	.	1d
=110	=110	=110	=110
0G	0E	1.B	0e
.	.	2c\	.
=111	=111	=111	=111
1G	0r	2d\	0r
.	.	1e	.
1G	.	.	.
.	.	4d\	.
.	.	4c\	.
=112	=112	=112	=112
1G	0r	2B\	0r
.	.	1e	.
1F	.	.	.
.	.	2d\	.
=113	=113	=113	=113
0E	0r	0e	0r
=114	=114	=114	=114
0r	0G	0r	1.B
.	.	.	2c/
=115	=115	=115	=115
0r	1G	0r	2d/
.	.	.	1e
.	1G	.	.
.	.	.	4d/
.	.	.	4c/
=116	=116	=116	=116
0r	1G	0r	2B/
.	.	.	1e
.	1F	.	.
.	.	.	2d/
=117	=117	=117	=117
0r	0E	0r	1e
.	.	.	1r
=118	=118	=118	=118
1.E	0r	1.B	0g
4D\	.	2c\	.
4C/	.	.	.
=119	=119	=119	=119
2BB/	0r	2d\	1g
1C	.	1e	.
.	.	.	1g
4BB/	.	4d\	.
4AA/	.	4c\	.
=120	=120	=120	=120
2GG/	0r	2B\	1g
2C/	.	1e	.
2AA/	.	.	1f
2BB/	.	2d\	.
=121	=121	=121	=121
1C	3%4GV	2e\	0e
.	.	4d\	.
.	.	4c\	.
2r	.	2B\	.
.	[3%2GZ	.	.
2C/	.	2c\	.
=122	=122	=122	=122
2BB/	3%2G]V	2d\	0r
1C	.	1e	.
.	3%4GZ	.	.
4BB/	.	4d\	.
4AA/	.	4c\	.
=123	=123	=123	=123
1GG	0B	2d\	0g
.	.	2e\	.
[1G	.	2d\	.
.	.	[2e\	.
=124	=124	=124	=124
2G\]	0G	2e\]	1g
2F\	.	1d	.
1E	.	.	1g
.	.	2c\	.
=125	=125	=125	=125
1D	0F	3%2dV	2b\
.	.	.	1a
.	.	3%2A	.
1D	.	.	.
.	.	3%2BZ	.
.	.	.	4g/
.	.	.	4f/
=126	=126	=126	=126
2.C/	1G	1c	1.e
4BB/	.	.	.
2AA/	[1A	1r	.
[2D\	.	.	[2f/
=127	=127	=127	=127
4D\]	1A]	0r	4f/]
4C/	.	.	4e/
2AA/	.	.	2c/
2BB/	1G	.	2d/
2C/	.	.	2e/
=128	=128	=128	=128
2D\	0F	0r	2f/
1E	.	.	2g/
.	.	.	1a
2D\	.	.	.
=129	=129	=129	=129
[0E	0r	2B\	2.g/
.	.	2c\	.
.	.	.	4a/
.	.	2B\	2b\
.	.	[2e\	[2cc\
=130	=130	=130	=130
0E_	0r	2e\]	2cc\]
.	.	4d\	4b\
.	.	4c\	4a/
.	.	2e\	2cc\
.	.	[2e\	2b\
=131	=131	=131	=131
0E]	0r	4e\]	2e/
.	.	4d\	.
.	.	2c\	1a
.	.	1B	.
.	.	.	2g#i/
=132	=132	=132	=132
1AA	1E	1A	2a/
.	.	.	2.cc\
2r	1F	1c	.
.	.	.	4b\
2AA/	.	.	2a/
=133	=133	=133	=133
2E\	0G	2.B\	2g/
4D\	.	.	4f/
4C/	.	4c\	4e/
2BB/	.	2d\	2d/
2C/	.	2c\	2e/
=134	=134	=134	=134
2D\	0F	2.A/	2f/
4C/	.	.	4e/
4BB/	.	4B\	4d/
2AA/	.	2c\	2c/
2BB/	.	2B\	2d/
=135	=135	=135	=135
4C/	0E	1G	2e/
4D\	.	.	.
4E\	.	.	4d/
4F\	.	.	4c/
2G\	.	2r	2B/
2C/	.	2G/	2c/
=136	=136	=136	=136
2r	0F	2.A/	4d/
.	.	.	4e/
2D\	.	.	4f/
.	.	4B\	4g/
2AA/	.	2c\	2a/
[2D\	.	2A/	[2f/
=137	=137	=137	=137
4D\]	0F	2r	4f/]
4C/	.	.	4e/
4BB/	.	2F/	4d/
4AA/	.	.	4c/
1D	.	2A/	1d
.	.	2B\	.
=138	=138	=138	=138
1.AA	[0E	1c	0e
.	.	1A	.
[2C/	.	.	.
=139	=139	=139	=139
4C/]	0E]	1.r	0r
4BB/	.	.	.
1AA	.	.	.
2GG/	.	2B\	.
=140	=140	=140	=140
*	*M3/1	*	*
*	*met(O/3)	*	*
1AA	0r	1c	2.e/
.	.	.	4f/
1r	.	2B\	2g/
.	.	2e\	2g/
=141	=141	=141	=141
0r	0r	1f	1a
.	.	2e\	2g/
.	.	2E/	[2e/
=142	=142	=142	=142
0r	0r	1F	2e/]
.	.	.	2d/
.	.	2E/	2e/
.	.	2B\	[2g/
=143	=143	=143	=143
0r	3%4.E	1c	4g/]
.	.	.	4e/
.	.	.	1a
.	.	1B	.
.	.	.	2g#i/
=144	=144	=144	=144
*M3/3%2	*M3/3%2	*M3/3%2	*M3/3%2
*met(O/3)	*met()	*met(O/3)	*met(O/3)
!!primary-mensuration: met(O/3)
3%2D	3%4.F	3%2A	3%2a
3%2AA	.	3%2c	3%2r
3%2D	.	3%2d	3%2a
=145	=145	=145	=145
3%4AA	3%4.E	3%4e	3%2.cc
.	.	.	3b\
3%2AA	.	3%2e	3%2a
=146	=146	=146	=146
3%2.C	3%4.E	3%2.e	3%2.g
3D\	.	3d\	3f/
3%2E	.	3c\	3e/
.	.	3B\	3d/
=147	=147	=147	=147
3%2F	3%4.r	3%2A	3%2c
3%2.A	.	3%2.c	3%2.f
3G\	.	3B\	3e/
=148	=148	=148	=148
3%2E	3%4.r	3%4B	3%4e
3%4F	.	.	.
.	.	3%2A	3%2d
=149	=149	=149	=149
3%2.E	3%4.r	3%2B	3%2e
.	.	3%2E	3%2r
3AA/	.	.	.
3%2AA	.	3%2F	3%2r
=150	=150	=150	=150
3%2GG	3%2E	3G/	3%4.r
.	.	3%2E	.
3%4FF	3%4F	.	.
.	.	3D/	.
.	.	3D/	.
.	.	3C/	.
=151	=151	=151	=151
3%4.EE	3%4.G	3%2E	3%2.g
.	.	3%2.e	.
.	.	.	3a/
.	.	.	3%2b
.	.	6d\	.
.	.	6c\	.
=152	=152	=152	=152
3%4.r	3%2G	3%2B	3%2b
.	3%4F	3%2c	3a/
.	.	.	3%2cc
.	.	3%2d	.
.	.	.	6b\
.	.	.	6a/
=153	=153	=153	=153
3%4.r	3%4.E	3%2.e	3%2.g
.	.	6d\	3f/
.	.	6c\	.
.	.	3%2B	3e/
.	.	.	3d/
=154	=154	=154	=154
3%4.r	3%4.F	3%4A	3%2c
.	.	.	3%2.d
.	.	3%2r	.
.	.	.	3e/
=155	=155	=155	=155
3%4.r	3%4.F	3%4.A	3%2f
.	.	.	3%2c
.	.	.	3%2d
=156	=156	=156	=156
3%2r	3%4.E	3%4B	3%2e
3%2r	.	.	3%2.g
3%2E	.	3%2G	.
.	.	.	6f/
.	.	.	6e/
=157	=157	=157	=157
3%2.G	3%4.r	3%2.B	3%2d
.	.	.	3%2g
6F\	.	3c\	.
6E\	.	.	.
3%2D	.	3%2d	3%2f
=158	=158	=158	=158
3%4G	3%4.r	3%2.B	3%2d
.	.	.	3%2e
.	.	3c\	.
3%2F	.	3%2d	3%2f
=159	=159	=159	=159
3%2E	3%4.r	3%4c	3%2g
3%4D	.	.	3%2.a
.	.	3%2B	.
.	.	.	6g/
.	.	.	6f/
=160	=160	=160	=160
3%4.C	3%4.G	3%4.c	3%4e
.	.	.	3%2r
=161	=161	=161	=161
3%4.r	3%4.G	3%4.B	3%2.g
.	.	.	3a/
.	.	.	3%2b
=162	=162	=162	=162
3%2r	3%4.F	[0A	3%2.cc
3%2r	.	.	.
.	.	.	3b\
3%2D	.	.	3a/
.	.	.	3g/
=163	=163	=163	=163
3%2.D	3%4.r	3%4.A]	3%2.f
6C/	.	.	6e/
6BB/	.	.	6d/
3%2AA	.	.	3%2c
=164	=164	=164	=164
3%4D	3%4.r	3%2B	3%2r
.	.	3%2.A	3%2r
3%2C	.	.	3%2c
.	.	3G/	.
=165	=165	=165	=165
3%2BB	3%4.r	3%4G	3%2g
3%4AA	.	.	3%2a
.	.	3%2F#i	3%2cc
=166	=166	=166	=166
[3%4.GG	3%4.G	3%4.G	3%4b
.	.	.	[3%2dd
=167	=167	=167	=167
3%4.GG]	3%4G	[0d	3dd\]
.	.	.	3cc\
.	.	.	3b\
.	.	.	3a/
.	[3%2B-	.	3%2g
=168	=168	=168	=168
3%4.r	3%2B-]	3%2d]	3%2f
.	3%4G	3%4e	3%2g
.	.	.	3%2b-i
=169	=169	=169	=169
3%4.r	3%4F	3%2.f	3%4a
.	.	3e\	.
.	3%2G	3%2d	3%2g
=170	=170	=170	=170
3%4.r	3%2.A	3%2.c	3%2.f
.	3G/	3B\	3e/
.	3%2F	3%2A	3%2d
=171	=171	=171	=171
3%2.G	3%4.r	3%2.B	3%2.d
6F\	.	3c\	3e/
6E\	.	.	.
3%2D	.	3%2d	3%2f
=172	=172	=172	=172
3%4G	3%4.r	3%2G	3%2.e
.	.	3%2B	.
.	.	.	6d/
.	.	.	6e/
3%2F	.	3%2A	3d/
.	.	.	3c/
=173	=173	=173	=173
3%2E	3%4.r	3%4G	3%4c
3%4D	.	.	.
.	.	3%2F	3%2B
=174	=174	=174	=174
3%4.C	3%4.E	3%2G	3%4.c
.	.	3%2A	.
.	.	3%2G	.
=175	=175	=175	=175
3%4.r	3%2E	3%2c	3%4.r
.	3%2F	3%2A	.
.	[3%2G	2B\	.
.	.	6c\	.
=176	=176	=176	=176
3%4.r	3%2G]	3d\	3%4.r
.	.	3%2e	.
.	3%4F	.	.
.	.	6d\	.
.	.	6c\	.
.	.	3%2d	.
=177	=177	=177	=177
3%4.r	3%4.E	3%2e	3%4g
.	.	3%2r	.
.	.	3%2e	3%2g
=178	=178	=178	=178
3%4.r	3%4.F	3%2c	3%2.a
.	.	3%2.f	.
.	.	.	3b\
.	.	.	3%2cc
.	.	6e\	.
.	.	6d\	.
=179	=179	=179	=179
3%4.r	3%4.F	3%2c	3%2a
.	.	3%2d	3%2f
.	.	3%2c	3%2a
=180	=180	=180	=180
3%4.r	3%4.E	3%2.e	3%4g
.	.	6d\	.
.	.	6c\	.
.	.	3%2B	3%2r
=181	=181	=181	=181
3%2.G	3%4.r	3%2.B	3%2.d
6F\	.	3c\	3e/
6E\	.	.	.
3%2D	.	3%2d	3%2f
=182	=182	=182	=182
3%4G	3%4.r	3%2e	3%2g
.	.	3%2.d	3%2b
3%2F	.	.	3%2a
.	.	3c\	.
=183	=183	=183	=183
3%2E	3%4.r	3%4c	3%2g
3%4D	.	.	3b\
.	.	.	3%2a
.	.	3%2B	.
.	.	.	3f/
=184	=184	=184	=184
3%4.C	3%4G	3%4c	3%4e
.	3%2G	3%2r	3%2r
=185	=185	=185	=185
3%4.r	3%2G	3%4B	3%4e
.	3%2G	.	.
.	3%2F	3%2A	3%2d
=186	=186	=186	=186
3%4.r	3%4.E	3%2.B	3%2e
.	.	.	3%4g
.	.	3G/	.
.	.	3%2c	.
=187	=187	=187	=187
3%2.D	3%4.r	3%2A	3%2.f
.	.	3%2r	.
6C/	.	.	6e/
6BB/	.	.	6d/
3%2AA	.	3%2A	3%2c
=188	=188	=188	=188
3%4D	3%4.r	3%2B	3%4.r
.	.	3%2.A	.
3%2C	.	.	.
.	.	3G/	.
=189	=189	=189	=189
3%2BB	3%4.r	3%4G	3%4r
3%4AA	.	.	.
.	.	3%2F#i	3%2cc
=190	=190	=190	=190
[3%4.GG	3%4G	3%4G	3%2b
.	.	.	3%2g
.	[3%2G	3%2r	3%2dd
=191	=191	=191	=191
3%4.GG_	3%2G]	[0d	3dd\
.	.	.	3cc\
.	3%4G	.	3b\
.	.	.	3a/
.	.	.	[3%2g
=192	=192	=192	=192
3%4.GG]	3%4.B	3%4.d]	3g/]
.	.	.	6f/
.	.	.	6e/
.	.	.	3%2d
.	.	.	[3%2g
=193	=193	=193	=193
3%4.r	3%4.G	3%4d	3%2g]
.	.	.	3%4b
.	.	3%2e	.
=194	=194	=194	=194
3%4.r	3%4F	3%2.f	3%4a
.	.	3e\	.
.	3%2G	3%2d	3%2b
=195	=195	=195	=195
3%4.r	3%4A	3%4c	3%2cc
.	.	.	3%2a
.	3%2G	3%2B	3%2b
=196	=196	=196	=196
3%4.r	3%4.F	3%2A	3%2cc
.	.	3%2c	3%2.a
.	.	3%2d	.
.	.	.	6g/
.	.	.	6f/
=197	=197	=197	=197
3%2.G	3%4.r	3%2.B	3%2e
.	.	.	3%2d
6F\	.	3G/	.
6E\	.	.	.
3%2D	.	3%2A	3%2f
=198	=198	=198	=198
3%4G	3%4.r	3%4B	3%2e
.	.	.	3%2.d
3%2F	.	3%2A	.
.	.	.	3c/
=199	=199	=199	=199
3%2E	3%4.r	3%4G	3%4c
3%4D	.	.	.
.	.	3%2F	3%2B
=200	=200	=200	=200
3%2C	3%2E	3%2G	3%2c
3%2BB	3%4F	3%2r	3%2r
3%2AA	.	3%2r	3%2cc
=201	=201	=201	=201
3%4GG	3%4.G	3%4.r	3%2b
.	.	.	3%2.dd
3%2GG	.	.	.
.	.	.	6cc\
.	.	.	6b\
=202	=202	=202	=202
3%4D	3%4.F	3%4A	3%2a
.	.	.	3%2.f
3%2D	.	3%2A	.
.	.	.	6e/
.	.	.	6d/
=203	=203	=203	=203
3%2.AA	3%4.E	3%2A	3%2c
.	.	3%2.c	3%2r
3BB/	.	.	.
3%2C	.	.	3%2g
.	.	3B\	.
=204	=204	=204	=204
3%4D	3%4.F	[0A	3%2.f
.	.	.	3g/
3%2D	.	.	3%2a
=205	=205	=205	=205
3%2.D	3%4.F	3%4.A]	2d/
.	.	.	6e/
.	.	.	3f/
3AA/	.	.	3%2e
3%2D	.	.	.
.	.	.	3d/
=206	=206	=206	=206
3%2GG	[0El	3%2B	[0el
2AA/	.	2c\	.
6BB/	.	6B\	.
3C/	.	3A/	.
[3AA/	.	[3c\	.
=207	=207	=207	=207
3AA/]	3%4.E_	3c\]	3%4.e_
3GG/	.	3B\	.
3AA/	.	3c\	.
3GG/	.	3B\	.
3%2AA	.	3%2c	.
=208	=208	=208	=208
3%4.EEl	3%4.E]	3%4.Bl	3%4.e]
==	==	==	==
*-	*-	*-	*-
!!!RDF**kern: l=long note in original notation
!!!RDF**kern: i=editorial accidental
!!!RDF**kern: V=start of tuplet marker
!!!RDF**kern: Z=end of tuplet marker
!!!ENC:	Jesse Rodin 08/01/2010
!!!END:	2012/11/10/
!!!EED:	Jesse Rodin
!!!EEV:	2013/08/11/
!!!ONB:	Translated from MusicXML and edited on 2013/08/11/ by Craig Sapp
!!muse2ps: C^@{COM}^i2I150v85,85,85,150Q16
